app/images/icons/award.svg

<svg xmlns="http://www.w3.org/2000/svg" preserveAspectRatio="xMidYMid" width="41.79" height="40.406"><path d="M41.644 7.828L28.425 28.275a8.533 8.533 0 01.824 3.67c0 4.673-3.743 8.475-8.342 8.475-4.601 0-8.344-3.802-8.344-8.475 0-1.313.296-2.559.825-3.671L.169 7.828a.917.917 0 01.116-1.139L6.603.271a.888.888 0 01.631-.266h27.345c.237 0 .464.096.631.266l6.319 6.418a.92.92 0 01.115 1.139zM20.907 38.607c3.615 0 6.557-2.988 6.557-6.662 0-3.672-2.942-6.661-6.557-6.661-3.617 0-6.559 2.989-6.559 6.661 0 3.674 2.942 6.662 6.559 6.662zm.013-15.136l9.849-15.234H11.043l9.85 15.234h.027zm-6.481 3.127a8.35 8.35 0 014.477-2.883L8.907 8.237H2.569l11.87 18.361zm19.77-24.78H7.603L3.07 6.424h35.674l-4.535-4.606zm-1.304 6.419L22.897 23.715a8.346 8.346 0 014.477 2.884l11.87-18.362h-6.339zm-13.114 20.39h1.419a.9.9 0 01.892.908v5.808a.9.9 0 01-.892.906.9.9 0 01-.893-.906v-4.902h-.526a.9.9 0 01-.892-.906.9.9 0 01.892-.908z" fill="#a3bbc8" fill-rule="evenodd"/></svg>

<svg xmlns="http://www.w3.org/2000/svg" xmlns:xlink="http://www.w3.org/1999/xlink" preserveAspectRatio="xMidYMid" width="41.79" height="40.406" viewBox="0 0 41.79 40.406">
  <defs>
    <style>
      .cls-1 {
        fill: #a3bbc8;
        fill-rule: evenodd;
      }
    </style>
  </defs>
  <path d="M41.644,7.828 L28.425,28.275 C28.953,29.386 29.249,30.632 29.249,31.945 C29.249,36.618 25.506,40.420 20.907,40.420 C16.306,40.420 12.563,36.618 12.563,31.945 C12.563,30.632 12.859,29.386 13.388,28.274 L0.169,7.828 C-0.063,7.468 -0.015,6.993 0.285,6.689 L6.603,0.271 C6.771,0.101 6.998,0.005 7.234,0.005 L34.579,0.005 C34.816,0.005 35.043,0.101 35.210,0.271 L41.529,6.689 C41.828,6.993 41.875,7.468 41.644,7.828 ZM20.907,38.607 C24.522,38.607 27.464,35.619 27.464,31.945 C27.464,28.273 24.522,25.284 20.907,25.284 C17.290,25.284 14.348,28.273 14.348,31.945 C14.348,35.619 17.290,38.607 20.907,38.607 ZM20.920,23.471 L30.769,8.237 L11.043,8.237 L20.893,23.471 C20.897,23.471 20.902,23.471 20.907,23.471 C20.911,23.471 20.915,23.471 20.920,23.471 ZM14.439,26.598 C15.567,25.193 17.129,24.162 18.916,23.715 L8.907,8.237 L2.569,8.237 L14.439,26.598 ZM34.209,1.818 L7.603,1.818 L3.070,6.424 L9.388,6.424 C9.394,6.424 9.401,6.424 9.407,6.424 L32.406,6.424 C32.412,6.424 32.418,6.424 32.424,6.424 L38.744,6.424 L34.209,1.818 ZM32.905,8.237 L22.897,23.715 C24.684,24.162 26.246,25.193 27.374,26.599 L39.244,8.237 L32.905,8.237 ZM19.791,28.627 L21.210,28.627 C21.702,28.627 22.102,29.033 22.102,29.535 L22.102,35.343 C22.102,35.843 21.702,36.249 21.210,36.249 C20.717,36.249 20.317,35.843 20.317,35.343 L20.317,30.441 L19.791,30.441 C19.299,30.441 18.899,30.035 18.899,29.535 C18.899,29.033 19.299,28.627 19.791,28.627 Z" class="cls-1"/>
</svg>
